icons/headphones-outline.svg

<svg xmlns="http://www.w3.org/2000/svg" width="24" height="24" viewBox="0 0 24 24">
  <path d="M2,12 C2,6.47715249 6.47715252,2 12,2 C17.4292399,2 21.8479317,6.32667078 21.9961582,11.7200952 L22,12 L22,18.7142857 C22,20.5014405 20.6887605,22 19,22 L19,22 L18,22 C16.3112395,22 15,20.5014405 15,18.7142857 L15,18.7142857 L15,15.2857143 C15,13.4985595 16.3112395,12 18,12 L18,12 L20,12 C20,7.58172199 16.418278,4 12,4 C7.66508575,4 4.13545713,7.44783776 4.00380682,11.7508207 L4,12 L6,12 C7.68876047,12 9,13.4985595 9,15.2857143 L9,15.2857143 L9,18.7142857 C9,20.5014405 7.68876047,22 6,22 L6,22 L5,22 C3.31123953,22 2,20.5014405 2,18.7142857 L2,18.7142857 L2,12 Z M20,14 L18,14 C17.4796215,14 17,14.5481388 17,15.2857143 L17,15.2857143 L17,18.7142857 C17,19.4518612 17.4796215,20 18,20 L18,20 L19,20 C19.5203785,20 20,19.4518612 20,18.7142857 L20,18.7142857 L20,14 Z M6,14 L4,14 L4,18.7142857 C4,19.4518612 4.47962147,20 5,20 L5,20 L6,20 C6.52037853,20 7,19.4518612 7,18.7142857 L7,18.7142857 L7,15.2857143 C7,14.5481388 6.52037853,14 6,14 L6,14 Z"/>
</svg>

<svg xmlns="http://www.w3.org/2000/svg" viewBox="0 0 24 24">
  <path d="M2 12a10 10 0 0 1 20-.28v6.99c0 1.8-1.31 3.29-3 3.29h-1c-1.69 0-3-1.5-3-3.29V15.3c0-1.8 1.31-3.29 3-3.29h2a8 8 0 0 0-16-.25V12h2c1.69 0 3 1.5 3 3.29v3.42C9 20.51 7.69 22 6 22H5c-1.69 0-3-1.5-3-3.29V12zm18 2h-2c-.52 0-1 .55-1 1.29v3.42c0 .74.48 1.29 1 1.29h1c.52 0 1-.55 1-1.29V14zM6 14H4v4.71c0 .74.48 1.29 1 1.29h1c.52 0 1-.55 1-1.29V15.3c0-.75-.48-1.3-1-1.3z"/>
</svg>
